assets/aimg/iswrong.svg

<svg clip-rule="evenodd" fill-rule="evenodd" stroke-linejoin="round" stroke-miterlimit="2" viewBox="0 0 200 200" xmlns="http://www.w3.org/2000/svg"><g transform="matrix(1.23681 0 0 1.23681 -4.70281 -29.1796)"><path d="m88.864 86.616 24.032-32.773h26.149l-36.018 52.088 36.018 49.118h-30.381l-19.8-28.634-19.8 28.634h-30.381l36.017-49.118-36.017-52.088h26.149z" fill="#fff"/><path d="m70.73 105.876-34.707-50.193c-.684-.989-.763-2.276-.204-3.341.558-1.065 1.661-1.733 2.864-1.733h26.149c1.03 0 1.999.491 2.608 1.322l21.424 29.216 21.424-29.216c.609-.831 1.578-1.322 2.608-1.322h26.149c1.202 0 2.306.668 2.864 1.733.559 1.065.48 2.352-.204 3.341l-34.707 50.193 34.655 47.26c.721.983.828 2.288.277 3.375s-1.666 1.772-2.885 1.772h-30.381c-1.062 0-2.057-.521-2.661-1.395l-17.139-24.787-17.14 24.787c-.604.874-1.598 1.395-2.66 1.395h-30.381c-1.219 0-2.334-.685-2.885-1.772s-.444-2.392.277-3.375zm18.134-19.26 24.032-32.773h26.149l-36.018 52.088 36.018 49.118h-30.381l-19.8-28.634-19.8 28.634h-30.381l36.017-49.118-36.017-52.088h26.149z"/></g></svg>

<?xml version="1.0" encoding="UTF-8" standalone="no"?>
<!DOCTYPE svg PUBLIC "-//W3C//DTD SVG 1.1//EN" "http://www.w3.org/Graphics/SVG/1.1/DTD/svg11.dtd">
<svg width="100%" height="100%" viewBox="0 0 200 200" version="1.1" xmlns="http://www.w3.org/2000/svg" xmlns:xlink="http://www.w3.org/1999/xlink" xml:space="preserve" xmlns:serif="http://www.serif.com/" style="fill-rule:evenodd;clip-rule:evenodd;stroke-linejoin:round;stroke-miterlimit:2;">
    <g transform="matrix(1.23681,0,0,1.23681,-4.70281,-29.1796)">
        <path d="M88.864,86.616L112.896,53.843L139.045,53.843L103.027,105.931L139.045,155.049L108.664,155.049L88.864,126.415L69.064,155.049L38.683,155.049L74.7,105.931L38.683,53.843L64.832,53.843L88.864,86.616Z" style="fill:white;"/>
        <path d="M70.73,105.876L36.023,55.683C35.339,54.694 35.26,53.407 35.819,52.342C36.377,51.277 37.48,50.609 38.683,50.609L64.832,50.609C65.862,50.609 66.831,51.1 67.44,51.931L88.864,81.147L110.288,51.931C110.897,51.1 111.866,50.609 112.896,50.609L139.045,50.609C140.247,50.609 141.351,51.277 141.909,52.342C142.468,53.407 142.389,54.694 141.705,55.683L106.998,105.876L141.653,153.136C142.374,154.119 142.481,155.424 141.93,156.511C141.379,157.598 140.264,158.283 139.045,158.283L108.664,158.283C107.602,158.283 106.607,157.762 106.003,156.888L88.864,132.101L71.724,156.888C71.12,157.762 70.126,158.283 69.064,158.283L38.683,158.283C37.464,158.283 36.349,157.598 35.798,156.511C35.247,155.424 35.354,154.119 36.075,153.136L70.73,105.876ZM88.864,86.616L112.896,53.843L139.045,53.843L103.027,105.931L139.045,155.049L108.664,155.049L88.864,126.415L69.064,155.049L38.683,155.049L74.7,105.931L38.683,53.843L64.832,53.843L88.864,86.616Z"/>
    </g>
</svg>
